icons/lines/monitor-mobbile.svg

<svg xmlns="http://www.w3.org/2000/svg" width="24" height="24" viewBox="0 0 24 24" fill="none" stroke="currentColor" stroke-width="2" stroke-linecap="round" stroke-linejoin="round" >
  <path d="M10 16.95H6.21C2.84 16.95 2 16.11 2 12.74V6.74003C2 3.37003 2.84 2.53003 6.21 2.53003H16.74C20.11 2.53003 20.95 3.37003 20.95 6.74003"/>
  <path d="M10 21.4699V16.95"/>
  <path d="M2 12.95H10"/>
  <path d="M6.74023 21.47H10.0002"/>
  <path d="M22.0003 12.8V18.51C22.0003 20.88 21.4103 21.47 19.0403 21.47H15.4903C13.1203 21.47 12.5303 20.88 12.5303 18.51V12.8C12.5303 10.43 13.1203 9.83997 15.4903 9.83997H19.0403C21.4103 9.83997 22.0003 10.43 22.0003 12.8Z"/>
  <path d="M17.2445 18.25H17.2535"/>
  </svg>

<svg xmlns="http://www.w3.org/2000/svg" width="24" height="24" viewBox="0 0 24 24" fill="none" stroke="currentColor" stroke-width="2" stroke-linecap="round" stroke-linejoin="round">
  <path d="M17.245 18.25h.01" />
  <path d="M2 12.95h8" />
  <path d="M22 18.51c0 2.37-.59 2.96-2.96 2.96h-3.55c-2.37 0-2.96-.59-2.96-2.96V12.8c0-2.37.59-2.96 2.96-2.96h3.55c2.37 0 2.96.59 2.96 2.96z" />
  <path d="M6.74 21.47H10v-4.52H6.21c-3.37 0-4.21-.84-4.21-4.21v-6c0-3.37.84-4.21 4.21-4.21h10.53c3.37 0 4.21.84 4.21 4.21" />
</svg>
